X: 8
T:Si Bheag Si Mhor - counter melody
M:3/4
L:1/8
R:waltz
K:Dmaj
FG |: "_D"A6 | F3 E F2 | "_G"G4 "_A"E2 | "_D"D2 E2 F2 | "_G"G4 B2 | "_A"A2 B2>c2 | "_D"d2 A2 "_A7"G2 | 
"_Bm"F2 DEFA | "_G"G2 B,CDE | "_D"F2 A,B,CD | "_Bm"E2 D2 "_A"C2 | "_Bm"DEFG A2 | "_G6"A4 G2 | "_A7"G2 F2 E2 |1 "_D"D6 :|2 A2 B2 c2 ||
|:"_D"d4 AB | "_A"c2 A2 "_D"d2 | "_G"gfed"_A"ce | "_D"d2 A2 B2 | "_A"c2 AB c2 | "_D"d4 A2 | "_G"A2 G2 F2 | "_Em"E2 D2 "_A"C2 | 
"_D"D2 A,B, "_A"C2 |"_Bm" DEFG A2 |"_G"A2 GF G2 | "_D"G2 FE F2 | "_Em"G2 edcB | "_A"ABAGFE | "_D"D2 AGFE |1 D6 :|2 D6 ||

